X:183
T:Crop the Croppies,2voices. JGi.183
M:2/4
L:1/8
Q:1/4=120
S:Joshua Gibbons MS,1823,Tealby,Lincs.
R:march
O:Tealby,Lincolnshire
Z:VMP/R.Greig, 2009
K:F
[V:1]|:fcAc|fcAc|fcfa|f2e2|ffga|bagf|ecde|f2f2:|
[V:2]|:F,2CA,|F,2CA,|F,2A,2|C2CB,|A,2F,2|G,A,B,B,|C2C,2|F,2F,,2:|
[V:1]|:c2cA|c2cA|dc BA|B2G2|B2BG|B2BG|cBAG|B2F2:|
[V:2]|:F,CA,C|F,CF,C|^F,DA,D|G,DB,D|G,DB,D|F,DB,D|E,CG,C|F,CA,C:|

